X: 8
T: Toss The Feathers
R: reel
M: 4/4
L: 1/8
K: Dmix
|: D2 ED ADED | ABcA GEGE | D2 (3FED ADED | AddB cAGE
D2 DA D2 ED | ABcA GE E2 | cABG A2 (3ABc | d2 ed cAGE :|
Ad d2 Ad d2 | Ad d2 ed^cd | eaag a2 ge | a2 ag aged
ef (3gfe af (3gfe | f3 d dcAB | cABG A2 (3ABc | d2 ed cAGE :|


Tune 113	Setting 12700

